X:1
T:Mon coeur ravy d'amour
T:Jean de Castro
T:Source : Livre de chansons à 3 parties---Paris---A.le Roy & R.Ballard---1575. Editor : André Vierendeels (28/01/16).
T:Notes : Original clefs : G2, C2, C3 Editorial accidentals above the staff m50 in T, first"do" noteted as "do sharp" in original print
T:Mon coeur ravy d'amour
T:©
T:©
T:©
T:©
T:©
T:©
C:Jean de Castro
Z:©
%%score [ 1 2 3 ]
L:1/8
Q:1/4=104
M:2/2
K:F
V:1 treble nm="Soprano 1" snm="S 1"
V:2 treble nm="Soprano 2" snm="S 2"
V:3 treble-8 nm="Tenor" snm="T"
V:1
 z8 | G4 d4 | z2 d2 c2 A2 | d4 z2 G2 | d4 z2 d2 | =B2 d2 c2 B2 | z2 B2 c3 c | d2 d2 =B2 d2 | %8
w: |Mon coeur|ra- vy d'a-|mour, mon|coeur ra-|vy d'a- mour fort,|ra- vy d'a-|mour, ra- vy d'a-|
 c6 f2 | e2 d2 c4 | d2 A2 A2 A2 | d4 z2 d2 | d2 d2 g2 f2 | f2 d2 c2 c2 | d8 | z2 f2 f2 f2 | c6 d2 | %17
w: mour fort|va- ri- a-|ble, au beau jar-|din, au|beau jar- din jo-|li du dieu puis-|sant,|res- jou- ir|se _|
 e2 f4 e2 | f4 z2 d2 | c4 F2 G2- | G2 F2 E4 | G4 z2 A2 | D4 d4- | d2 ^c=B c4 | d4 z2 d2 | %25
w: _ _ sou-|loit en|l'a- mi- a-||ble gra-|c'et ver-||tu, des|
 c2 A2 B2 c2 |"^-natural" A6 f2 | e2 c2 d2 G2 | B2 AG A4 | z2 d2 f2 d2 | d2 cB A2 d2- | %31
w: fleurs et lieux plai-|sans, des|fleurs et lieux plai-|sans, _ _ _|vi- vant en|joy' _ _ et li-|
 dc B2 A2 G2 | A4 z2 d2 | d2 d2 B2 G2 | z4 z2 c2 | c2 c2 A4 | F2 F2 f2 d2- | d2 B2 c4 | d4 z2 f2 | %39
w: * * es- se fai-|sant es-|leut des lis blancs|es-|leut des lis|blancs, sou- ci- es|_ jau- net-|tes, ro-|
 e4 d4 | c4 B4 | A2 G3 F/E/ F2 | G4 z4 | z4 z2 d2 | e2 f2 g4 | ^f2 g3 f/e/ f2 | g4 z2 G2 | %47
w: ses d'o-|deur par-|faic- * * * *|tes,|et|vi- o- let-||tes je-|
 GABc de f2- | f2 c2 d4 | z2 f2 f2 e2 | d2 d2 c4 | =B8 | z4 A4 | B4 B4 | A4 f4 | e6 f2 | d2 c2 d4 | %57
w: tant _ _ _ _ _ _|_ ses yeux|lors fus u-|ne pe- ti-|te|tant|bel- le|fleur, tant|dou- c'en|a- mou- ret-|
 ^c4 z2 A2- | A2 G4 d2 | d2 cB A4 | z8 | z4 d4 | g6 g2 | f4 f4 | e8 | d4 z2 f2 | f4 f4 | e4 d4 | %68
w: te, en|_ la bay-|sant, _ _ _||choi-|sit la|mar- gue-|ri-|te, choi-|sit la|mar- gue-|
 c8 | !fermata!=B8 |] %70
w: ri-|te.|
V:2
 D4 G4 | z2 B2 G2 B2 | A4 z2 F2 | D2 F2 E4 | z2 D2 G4 | z2 B2 A2 G2- | GA B3 A/G/ A2 | %7
w: Mon coeur|ra- vy d'a-|mour, ra-|vy d'a- mour,|mon coeur|ra- vy d'a-||
 B2 F2 G2 D2 | A6 A2 | G2 F2 E4 | F4 z2 D2 | D2 D2 G4 | z2 B4 A2 | z2 B2 B2 A2 | B4 z2 B2 | %15
w: mour, ra- vy d'a-|mour fort|va- ri- a-|ble, au|beau jar- din|jo- li|du dieu puis-|sant, res-|
 B2 B2 F2 B2 | A4 z2 A2 | G2 F2 G3 G | F4 z2 G2 | E2 F2 D3 C/B,/ | C2 D4 C2 | D4 F4 | G2 F4 ED | %23
w: jou- ir se sou-|loit, res-|jou- ir se sou-|loit en|l'a- mi- a- * *||ble gra-|c'et ver- * *|
 F4 E4 | D2 G2 F2 D2 | E2 F2 G2 FE | ^F4 z4 | z2 A2 G2 E2 |"^#""^#" F2 G3 F/E/ F2 | G4 z2 G2 | %30
w: |tu, des fleurs et|lieux plai- * * *|sans,|des fleurs et|lieux plai- * * *|sans, vivant|
 B2 A2 c2 B2- | BA G2 ^F2 G2 | ^F8 | z2 G2 G2 G2 | E4 C2 C2 | F6 D2 | z2 A2 D2 B2- | B2 B2 A4 | %38
w: en joy' et li-|* * es- se fai-|sant|es- leut des|lis blans, sou-|ci- es,|sou- ci- es|_ jau- net-|
 B4 z2 A2- | A2 G4 F2- | F2 E4 D2 | ^F2 G2 A4 | B4 z2 B2 | G2 A2 B4 | A4 z2 G2 | A2 B2 A4 | %46
w: tes, ro-|* ses d'o-|* deur par-|faic- * *|tes, et|vi- o- let-|tes, et|vi- o- let-|
 G2 C2 CDEF | G2 G2 D4 | z2 A2 B4 | A4 D2 E2 |"^#""^#" F2 G3 F/E/ F2 | G4 z2 G,2 | D4 D4 | %53
w: tes je- tant _ _ _|_ ses yeux|lors fus|u- ne pe-|ti- * * * *|te tant|bel- le|
 G,2 A,2 B,2 C2 | D4 A4- | A2 G4 A2 | BB A4 G2 | A4 z2 F2 | E4 D3 E | ^F2 G4 F2 | z2 B2 B2 G2 | %61
w: fleur, _ _ _|_ tant|_ dou- c'en|a- mou- ret- *|te, en|la bay- *|* sant, _|choi- sit la|
 A2 A2 B4- | B4 G4 | z4 A4 | c6 c2 | B4 A4 | B4 A4- | A2 G2 G4- | G2 ^FE F4 | !fermata!G8 |] %70
w: mar- gue- ri-|* te,|choi-|sit la|mar- gue-|ri- *|||te.|
V:3
 z8 | z4 G4 | d4 z2 d2 | =B2 d2 c4 | z4 G4 | g4 z2 g2 | e2 g2 f4 | z2 B2 G2 B2 | A4 F4 | c2 d2 A4 | %10
w: |Mon|coeur ra-|vy d'a- mour,|mon|coeur ra-|vy d'a- mour,|ra- vy d'a-|mour fort|va- ri- a-|
 d8 | z2 G2 G2 G2 | g6 d2 | f2 B2 f2 f2 | B8- | B4 z4 | z2 f2 f2 f2 | c4 c4 | d4 G4 | A4 B4 | A8 | %21
w: ble,|au beau jar-|din jo-|li du dieu puis-|sant,|_|res- jou- ir|se sou-|loit en|l'a- mi-|a-|
 G4 d4 | B4 B4 | A8 |"^-natural" z8 | z8 | z4 d4 | c2 A2 B2 c2 | d8 | z8 | z4 z2 B2- | %31
w: ble gra-|c'et ver-|tu,|||des|fleurs en lieux plai-|sans,||en|
 BF G2 d2 _e2 | d2 d2 d2 d2 | G4 z2 c2 | c2 c2 A4 | F2 F2 f4 | d2 d2 B4 | G2 g2 f4 | B4 d4 | %39
w: _ li- es- se fai-|sant es- leut des|lis, es-|leut des lis|blancs, sou ci-|es jau- net-|tes, jau- net-|tes, ro-|
 c4 B4 | A4 G4 | d4 d4 | z2 G2 A2 B2 | c4 d2 g2 | c2 d2 _e4 | d8 | z8 | c2 GA Bcde | f2 f2 B4 | %49
w: ses d'o-|deur par-|faic- tes,|et vi- o-|let- tes, et|vi- o- let-|tes,||je- tant _ _ _ _ _|_ ses yeux|
 c2 d4 ^c2 | B2 G2 A4 | G4 g4 | g4 ^f4 | g8 | z4 d4 | c6 F2 | G2 A2 B4 | A4 d4 | c4 G4 | d4 d4 | %60
w: lors fus u-|ne pe- ti-|te tant|bel- le|fleur,|tant|dou- c'en|a- mou- ret-|te, en|la bay-|sant, choi-|
 g6 g2 | f4 g4 | _e8 | d8 | z4 A4 | d8- | d4 d4 | c4 B4 | A8 | !fermata!G8 |] %70
w: sit la|mar- gue-|ri-|te,|choi-|sit|_ la|mar- gue-|ri-|te.|

